packages/ui/assets/svg/harmony.svg

<svg class="icon-size" viewBox="0 0 31 31" fill="none" xmlns="http://www.w3.org/2000/svg">
<g clip-path="url(#clip0_26_107)">
<path d="M6.68739 2.02249e-06C8.458 -0.00137628 10.1568 0.701769 11.4109 1.95509C12.665 3.20841 13.3719 4.90949 13.3765 6.68492V14.0969C14.0654 14.1435 14.7698 14.1729 15.5 14.1729C16.2302 14.1729 16.9312 14.2022 17.6235 14.2437V6.68492C17.6517 4.92488 18.3687 3.24649 19.6199 2.01182C20.8712 0.777149 22.5563 0.0851736 24.3117 0.0851736C26.0672 0.0851736 27.7523 0.777149 29.0036 2.01182C30.2548 3.24649 30.9718 4.92488 31 6.68492V24.3997C30.9718 26.1597 30.2548 27.8381 29.0036 29.0728C27.7523 30.3075 26.0672 30.9995 24.3117 30.9995C22.5563 30.9995 20.8712 30.3075 19.6199 29.0728C18.3687 27.8381 17.6517 26.1597 17.6235 24.3997V16.9878C16.9346 16.9411 16.2302 16.9118 15.5 16.9118C14.7698 16.9118 14.0688 16.8824 13.3765 16.841V24.3997C13.3483 26.1597 12.6313 27.8381 11.3801 29.0728C10.1288 30.3075 8.44372 30.9995 6.68825 30.9995C4.93278 30.9995 3.24766 30.3075 1.99643 29.0728C0.745206 27.8381 0.0281662 26.1597 -8.34465e-07 24.3997V6.68492C0.0045604 4.90979 0.711246 3.20897 1.96498 1.9557C3.21871 0.702428 4.91708 -0.000918656 6.68739 2.02249e-06V2.02249e-06ZM24.3126 2.7389C23.2677 2.73844 22.2652 3.15365 21.5252 3.89343C20.7852 4.6332 20.368 5.63712 20.3653 6.68492V14.5338C22.3221 14.8181 24.233 15.3599 26.0486 16.145C26.8353 16.4912 27.5758 16.9344 28.2531 17.4644V6.68492C28.2503 5.63832 27.8341 4.63544 27.0956 3.89586C26.3571 3.15628 25.3564 2.74027 24.3126 2.7389V2.7389ZM20.3653 24.3997C20.3653 25.4495 20.7812 26.4562 21.5214 27.1985C22.2617 27.9408 23.2657 28.3578 24.3126 28.3578C25.3595 28.3578 26.3635 27.9408 27.1038 27.1985C27.8441 26.4562 28.2599 25.4495 28.2599 24.3997V22.6227C28.2599 21.0529 27.0199 19.566 24.9412 18.6404C23.4765 18.0068 21.9397 17.5561 20.3653 17.2986V24.3997V24.3997ZM6.68739 28.3457C7.73234 28.3462 8.7348 27.931 9.47482 27.1912C10.2148 26.4514 10.632 25.4475 10.6347 24.3997V16.5508C8.6779 16.2665 6.767 15.7248 4.95139 14.9396C4.16474 14.5934 3.42421 14.1502 2.74694 13.6202V24.3997C2.74968 25.4463 3.16587 26.4492 3.9044 27.1888C4.64294 27.9283 5.64363 28.3444 6.68739 28.3457V28.3457ZM6.05878 12.4339C7.52348 13.0675 9.06033 13.5181 10.6347 13.7757V6.68492C10.6347 5.63517 10.2188 4.62841 9.47857 3.88612C8.7383 3.14383 7.73429 2.72681 6.68739 2.72681C5.64049 2.72681 4.63647 3.14383 3.8962 3.88612C3.15593 4.62841 2.74006 5.63517 2.74006 6.68492V8.46193C2.74006 10.0248 3.98005 11.5117 6.05878 12.4339Z" fill="url(#paint0_linear_26_107)"/>
</g>
<defs>
<linearGradient id="paint0_linear_26_107" x1="29.0367" y1="28.6899" x2="2.06666" y2="1.7199" gradientUnits="userSpaceOnUse">
<stop stop-color="#00AEE9"/>
<stop offset="1" stop-color="#69FABD"/>
</linearGradient>
<clipPath id="clip0_26_107">
<rect width="31" height="31" fill="white" transform="matrix(-1 0 0 1 31 0)"/>
</clipPath>
</defs>
</svg>

<svg class="icon-size" viewBox="0 0 31 31" fill="none" xmlns="http://www.w3.org/2000/svg"><g clip-path="url(#clip0_26_107)"><path d="M6.687 0a6.675 6.675 0 0 1 4.724 1.955 6.712 6.712 0 0 1 1.966 4.73v7.412c.688.046 1.393.076 2.123.076.73 0 1.431.03 2.123.07V6.686a6.716 6.716 0 0 1 1.997-4.673 6.68 6.68 0 0 1 9.384 0A6.716 6.716 0 0 1 31 6.685V24.4a6.717 6.717 0 0 1-1.996 4.673 6.68 6.68 0 0 1-9.384 0 6.717 6.717 0 0 1-1.997-4.673v-7.412a31.261 31.261 0 0 0-2.123-.076c-.73 0-1.431-.03-2.123-.071V24.4a6.717 6.717 0 0 1-1.997 4.673 6.68 6.68 0 0 1-9.384 0A6.716 6.716 0 0 1 0 24.4V6.685a6.711 6.711 0 0 1 1.965-4.73A6.675 6.675 0 0 1 6.687 0Zm17.626 2.739a3.94 3.94 0 0 0-2.788 1.154 3.962 3.962 0 0 0-1.16 2.792v7.849c1.957.284 3.868.826 5.684 1.611.786.346 1.527.79 2.204 1.32V6.684a3.962 3.962 0 0 0-1.157-2.79 3.94 3.94 0 0 0-2.783-1.156Zm-3.948 21.66c0 1.05.416 2.057 1.156 2.8a3.942 3.942 0 0 0 5.583 0 3.963 3.963 0 0 0 1.156-2.8v-1.776c0-1.57-1.24-3.057-3.319-3.983a19.42 19.42 0 0 0-4.576-1.341v7.1ZM6.687 28.347a3.94 3.94 0 0 0 2.788-1.155 3.962 3.962 0 0 0 1.16-2.791v-7.85a22.449 22.449 0 0 1-5.684-1.61 10.327 10.327 0 0 1-2.204-1.32V24.4a3.962 3.962 0 0 0 1.157 2.789 3.94 3.94 0 0 0 2.783 1.157ZM6.06 12.434a19.426 19.426 0 0 0 4.576 1.342V6.685c0-1.05-.416-2.057-1.156-2.799a3.942 3.942 0 0 0-5.583 0A3.964 3.964 0 0 0 2.74 6.685v1.777c0 1.563 1.24 3.05 3.319 3.972Z" fill="url(#paint0_linear_26_107)"/></g><defs><linearGradient id="paint0_linear_26_107" x1="29.037" y1="28.69" x2="2.067" y2="1.72" gradientUnits="userSpaceOnUse"><stop stop-color="#00AEE9"/><stop offset="1" stop-color="#69FABD"/></linearGradient><clipPath id="clip0_26_107"><path fill="#fff" transform="matrix(-1 0 0 1 31 0)" d="M0 0h31v31H0z"/></clipPath></defs></svg>
